web/ui/src/components/workflow/workflow-viewer/svgs/tool/process-log.svg

<svg height="24" viewBox="0 0 24 24" width="24" xmlns="http://www.w3.org/2000/svg"><g fill="none"><path d="m0 0h24v24h-24z" fill="#000" opacity="0"/><path d="m13.18125 9.64125c0 .32515765.2635924.58875.58875.58875s.58875-.26359235.58875-.58875-.2635924-.58875-.58875-.58875-.58875.26359235-.58875.58875zm-5.30625-4.125c-.32466146.00206795-.58637115.26656896-.58500011.59123409.00138184.32466512.26532484.58693759.58999216.586254.32466731-.00068627.58750795-.26407005.58750795-.58873809 0-.15679811-.06254016-.3071201-.17376459-.41764057-.11122443-.11052048-.26194048-.17210814-.41873541-.17110943zm2.355 8.25375c.2399793.0015189.4571745-.1418721.550065-.3631496s.0431285-.4767349-.1260263-.6469672c-.1691548-.1702322-.4242912-.2216151-.646154-.1301314-.22186279.0914836-.3666347.3077641-.3666347.5477482 0 .3257698.2629867.5904382.58875.5925zm9.435-11.83125h-15.33c-.97608141 0-1.76793203.79017078-1.77 1.76625v16.59c.00206797.9760792.79391859 1.76625 1.77 1.76625h12.375v-4.125c0-.3251576.2635924-.58875.58875-.58875h4.125v-13.6425c-.0020391-.97170455-.7870629-1.76007604-1.75875-1.76625zm-8.25 17.76375h-4.72125c-.32515765 0-.58875-.2635924-.58875-.58875s.26359235-.58875.58875-.58875h4.7175c.3251576 0 .58875.2635924.58875.58875s-.2635924.58875-.58875.58875zm-5.31001196-2.9475c0-.3251576.26360431-.58875.58876196-.58875h2.35875c.30798617.0245604.54540054.2816611.54540054.590625s-.23741437.5660646-.54540054.590625h-2.35875c-.15679811 0-.3071201-.0625402-.41764057-.1737646-.11052048-.1112244-.17210814-.2619405-.17112139-.4187354zm2.35876196-4.16625h.10875c.24743082-.7044753.91271074-1.1759326 1.659375-1.1759326.7466643 0 1.4119442.4714573 1.659375 1.1759326h3.99l-.1725-.1725c-.1487118-.1493817-.206433-.3667528-.1514206-.5702319.0550124-.203479.2144008-.3621526.418125-.41625s.4208338.0046002.5695456.1539819l1.1775 1.16625c.2302735.2311932.2302735.6050568 0 .83625l-1.1775 1.18875c-.1487118.1493817-.3658214.2080793-.5695456.1539819s-.3631126-.212771-.418125-.41625c-.0550124-.2034791.0027088-.4208502.1514206-.5702319l.1725-.1725h-3.99c-.2474308.7044753-.9127107 1.1759326-1.659375 1.1759326-.74666426 0-1.41194418-.4714573-1.659375-1.1759326h-.10875c-1.30270163 0-2.35874995-1.0560484-2.35874995-2.35875s1.05604832-2.35874997 2.35874995-2.35875h3.645c.2438723-.70821605.9103465-1.18359856 1.659375-1.18359856s1.4155027.47538251 1.659375 1.18359856h.10875c.4372195.0246639.8522062-.19457404 1.0782481-.56963975.2260419-.3750657.2260419-.8444048 0-1.2194705-.2260419-.37506571-.6410286-.59430365-1.0782481-.56963975h-6c-.28682592.8132037-1.11792982 1.30137057-1.96787062 1.15587141-.8499408-.14549915-1.4713428-.88231673-1.4713428-1.74462141s.621402-1.59912226 1.4713428-1.74462141c.8499408-.14549916 1.6810447.34266771 1.96787062 1.15587141h6c.8644547-.03448863 1.678421.40703374 2.1209123 1.15045342.4424914.74341968.4424914 1.66942348 0 2.41284316-.4424913.74341968-1.2564576 1.18494202-2.1209123 1.15045342h-.10875c-.2438723.7082161-.9103465 1.1835986-1.659375 1.1835986s-1.4155027-.4753825-1.659375-1.1835986h-3.645c-.43721953-.0246639-.85220617.194574-1.07824806.5696397-.22604189.3750658-.22604189.8444048 0 1.2194706.22604189.3750657.64102853.5943036 1.07824806.5696397zm9.43125 9.1275 3.19125-3.19125h-3.19125z" fill="#526579"/></g></svg>

<?xml version="1.0" encoding="UTF-8"?>
<svg width="24px" height="24px" viewBox="0 0 24 24" version="1.1" xmlns="http://www.w3.org/2000/svg" xmlns:xlink="http://www.w3.org/1999/xlink">
    <title>流程管理</title>
    <g id="页面-1" stroke="none" stroke-width="1" fill="none" fill-rule="evenodd">
        <g id="建木自动化-详情4" transform="translate(-1683.000000, -426.000000)" fill-rule="nonzero">
            <g id="流程管理" transform="translate(1683.000000, 426.000000)">
                <rect id="矩形" fill="#000000" opacity="0" x="0" y="0" width="24" height="24"></rect>
                <path d="M13.18125,9.64125 C13.18125,9.96640765 13.4448424,10.23 13.77,10.23 C14.0951576,10.23 14.35875,9.96640765 14.35875,9.64125 C14.35875,9.31609235 14.0951576,9.0525 13.77,9.0525 C13.4448424,9.0525 13.18125,9.31609235 13.18125,9.64125 L13.18125,9.64125 Z M7.875,5.51625 C7.55033854,5.51831795 7.28862885,5.78281896 7.28999989,6.10748409 C7.29138173,6.43214921 7.55532473,6.69442168 7.87999205,6.69373809 C8.20465936,6.69305182 8.4675,6.42966804 8.4675,6.105 C8.4675,5.94820189 8.40495984,5.7978799 8.29373541,5.68735943 C8.18251098,5.57683895 8.03179493,5.51525129 7.875,5.51625 Z M10.23,13.77 C10.4699793,13.7715189 10.6871745,13.6281279 10.780065,13.4068504 C10.8729555,13.1855729 10.8231935,12.9301155 10.6540387,12.7598832 C10.4848839,12.589651 10.2297475,12.5382681 10.0078847,12.6297518 C9.78602191,12.7212354 9.64125,12.9375159 9.64125,13.1775 C9.64125,13.5032698 9.9042367,13.7679382 10.23,13.77 L10.23,13.77 Z M19.665,1.93875 L4.335,1.93875 C3.35891859,1.93875 2.56706797,2.72892078 2.565,3.705 L2.565,20.295 C2.56706797,21.2710792 3.35891859,22.06125 4.335,22.06125 L16.71,22.06125 L16.71,17.93625 C16.71,17.6110924 16.9735924,17.3475 17.29875,17.3475 L21.42375,17.3475 L21.42375,3.705 C21.4217109,2.73329545 20.6366871,1.94492396 19.665,1.93875 L19.665,1.93875 Z M11.415,19.7025 L6.69375,19.7025 C6.36859235,19.7025 6.105,19.4389076 6.105,19.11375 C6.105,18.7885924 6.36859235,18.525 6.69375,18.525 L11.41125,18.525 C11.7364076,18.525 12,18.7885924 12,19.11375 C12,19.4389076 11.7364076,19.7025 11.41125,19.7025 L11.415,19.7025 Z M6.10498804,16.755 C6.10498804,16.4298424 6.36859235,16.16625 6.69375,16.16625 L9.0525,16.16625 C9.36048617,16.1908104 9.59790054,16.4479111 9.59790054,16.756875 C9.59790054,17.0658389 9.36048617,17.3229396 9.0525,17.3475 L6.69375,17.3475 C6.53695189,17.3475 6.3866299,17.2849598 6.27610943,17.1737354 C6.16558895,17.062511 6.10400129,16.9117949 6.10498804,16.755 L6.10498804,16.755 Z M8.46375,12.58875 L8.5725,12.58875 C8.81993082,11.8842747 9.48521074,11.4128174 10.231875,11.4128174 C10.9785393,11.4128174 11.6438192,11.8842747 11.89125,12.58875 L15.88125,12.58875 L15.70875,12.41625 C15.5600382,12.2668683 15.502317,12.0494972 15.5573294,11.8460181 C15.6123418,11.6425391 15.7717302,11.4838655 15.9754544,11.4297681 C16.1791786,11.3756707 16.3962882,11.4343683 16.545,11.58375 L17.7225,12.75 C17.9527735,12.9811932 17.9527735,13.3550568 17.7225,13.58625 L16.545,14.775 C16.3962882,14.9243817 16.1791786,14.9830793 15.9754544,14.9289819 C15.7717302,14.8748845 15.6123418,14.7162109 15.5573294,14.5127319 C15.502317,14.3092528 15.5600382,14.0918817 15.70875,13.9425 L15.88125,13.77 L11.89125,13.77 C11.6438192,14.4744753 10.9785393,14.9459326 10.231875,14.9459326 C9.48521074,14.9459326 8.81993082,14.4744753 8.5725,13.77 L8.46375,13.77 C7.16104837,13.77 6.10500005,12.7139516 6.10500005,11.41125 C6.10500005,10.1085484 7.16104837,9.05250003 8.46375,9.0525 L12.10875,9.0525 C12.3526223,8.34428395 13.0190965,7.86890144 13.768125,7.86890144 C14.5171535,7.86890144 15.1836277,8.34428395 15.4275,9.0525 L15.53625,9.0525 C15.9734695,9.0771639 16.3884562,8.85792596 16.6144981,8.48286025 C16.84054,8.10779455 16.84054,7.63845545 16.6144981,7.26338975 C16.3884562,6.88832404 15.9734695,6.6690861 15.53625,6.69375 L9.53625,6.69375 C9.24942408,7.5069537 8.41832018,7.99512057 7.56837938,7.84962141 C6.71843858,7.70412226 6.09703658,6.96730468 6.09703658,6.105 C6.09703658,5.24269532 6.71843858,4.50587774 7.56837938,4.36037859 C8.41832018,4.21487943 9.24942408,4.7030463 9.53625,5.51625 L15.53625,5.51625 C16.4007047,5.48176137 17.214671,5.92328374 17.6571623,6.66670342 C18.0996537,7.4101231 18.0996537,8.3361269 17.6571623,9.07954658 C17.214671,9.82296626 16.4007047,10.2644886 15.53625,10.23 L15.4275,10.23 C15.1836277,10.9382161 14.5171535,11.4135986 13.768125,11.4135986 C13.0190965,11.4135986 12.3526223,10.9382161 12.10875,10.23 L8.46375,10.23 C8.02653047,10.2053361 7.61154383,10.424574 7.38550194,10.7996397 C7.15946005,11.1747055 7.15946005,11.6440445 7.38550194,12.0191103 C7.61154383,12.394176 8.02653047,12.6134139 8.46375,12.58875 L8.46375,12.58875 Z M17.895,21.71625 L21.08625,18.525 L17.895,18.525 L17.895,21.71625 Z" id="形状" fill="#526579"></path>
            </g>
        </g>
    </g>
</svg>
